X: 40555
T: Tommy Peoples'
R: reel
M: 4/4
K: Gmajor
GGBG cABG|ADED FGAF|GGBG cABG|Addc AGFA|
GGGB cABG|ADED FGAF|GGBG cABG|Addc AG B/c/d||
|:ggdg egdg|ggbg fgaf|ggdg egdB|1 cBAc BG B/c/d:|2 cBAc BGGD||

